X:1
T:That Wonderful Day
T:That Wonderful Day
T:John B. Vaughan
T:John B. Vaughan, 1900
T:Public Domain Courtesy of the Cyber Hymnal™
T:Public Domain Courtesy of the Cyber Hymnal™
C:John B. Vaughan
Z:Public Domain
Z:Courtesy of the Cyber Hymnal™
%%score ( 1 2 ) ( 3 4 )
L:1/8
Q:1/4=125
M:6/4
K:Bb
V:1 treble 
V:2 treble 
V:3 bass 
V:4 bass 
V:1
 [DF]2 | [Fd]3 [=E^c] [Fd]2 ([_E=c]2 [DB]2) [Fd]2 | [Ec]2 [DB]2 [Ec]2 [Fd] [DB]3 [DF]2 | %3
w: 1.~The|won- der- ful day * of|judg- ment is com- ing, And|
w: 2.~Poor|sin- ner, be- lieve, * the|judg- ment is com- ing, O|
w: 3.~The|dead in their graves * will|come forth to meet it, All|
 [DB]3 [CA] [DB]2 ([Ec]2 [DB]2) [Ec]2 | ([Fd]4 [Ec]2 [DB]4) [DF]2 | %5
w: we shall soon hear * the|call; * * ’Tis|
w: where will you stand * that|day? * * The|
w: na- tions will hear * the|call * * That|
 [Fd]3 [=E^c] [Fd]2 [DB]4 [_E=c][Fd] | [Ae]3 [Ge] [Fd]2 [=Ec]4 [GB]2 | %7
w: com- ing to you, and ’tis|com- ing to me, That|
w: right- eous will hear, “Come ye|bless- èd of Mine,” The|
w: speaks in loud tones time on|earth is no more— That|
 ([FA]2 [EG]2) [DF]2 [DF] [Fd]3 [Ec]2 | [DB]6- [DB]4 z2 ||"^Refrain" [DB-]6 [FB]4 [DF]2 | %10
w: day * is com- ing to|all. *||
w: lost * be driv- en a-|way. *|O that won-|
w: day * is com- ing to|all. *||
 [FB]3 [EB] [DB]2 [DF]3 [DF] [EG]2 | B6- B6- z2 | B6- z2 [DB]4 z2 | ([Fc]6 [DB]4) [Fd]2 | %14
w: ||||
w: der- ful, won- der- ful day,|It’s *|* com-|soon; * O|
w: ||||
 [Ec]2 [DB]2 [Ec]2 [Fd]3 [Fd] [Ec]2 | B6- B6- z2 | B6- z2 [DB]4 F2 | [^Fd] [Fd]3 [Fd]2 [GB]4 (cd) | %18
w: ||||
w: that won- der- ful won- der-|ful *|* com- ing,|ing soon; It’s com- ing *|
w: ||||
 [Ge] [Ge]3 [Fd]2 [Fc]4 [GB]2 | ([FA]2 [EG]2) [DF]2 [DF] [Fd]3 [Ec]2 | B6- z2 B6- | [DB]6- [DB]4 |] %22
w: ||||
w: to you, it’s com- ing|to * me, That day is|com- *|Com- *|
w: ||||
V:2
 x2 | x12 | x12 | x12 | x12 | x12 | x12 | x12 | x12 || x12 | x12 | D4 D2 D D3 x4 | E E3 x10 | x12 | %14
w: ||||||||||||||
w: |||||||||||* * com- *|ing *||
 x12 | D4 D2 D D3 x4 | E E3 x3 F2 x5 | x10 _A2 | x12 | x12 | D D3 E E3 E2 x4 | x10 |] %22
w: ||||||||
w: |* * day, *|com- * *||||* * ing, * *||
V:3
 z2 | x12 | [B,,-F,]6 [B,,D]4 [B,,C]2 | [B,,D]3 [B,,C] [B,,B,]2 [B,,B,]3 [B,,B,] [B,,B,]2 | %4
 F,4 F,2 F, F,3 z2 | G, G,3 z2 [B,,F,]4 z2 | [F,A,]6 B,4 B,2 | %7
 [F,A,]2 [F,B,]2 [F,A,]2 [F,B,]3 [F,B,] [F,A,]2 | F,4 F,2 F, F,3 z2 || G, G,3 z2 [B,,F,]4 F,2 | %10
 [D,A,] [D,A,]3 [D,A,]2 [G,B,]4 [F,B,]2 | [E,B,] [E,B,]3 [B,,B,]2 [C,G,]4 [=E,C]2 x2 | %12
 C2 A,2 [F,B,]2 [F,B,] [F,B,]3 [F,A,]2 x2 | F, F,3 z2 G, G,3 G,2 | [B,,F,]6- [B,,F,]4 x2 | x14 | %16
 x14 | x12 | x12 | x12 | x14 | x10 |] %22
V:4
 x2 | x12 | x12 | x12 | B,,6- B,,6- | B,,6- x6 | x6 B,4 B,2 | x12 | B,,6- B,,6- || B,,6- x3 F,2 x | %10
 x12 | x14 | F,4 x10 | B,,6- B,,6- | x12 | x14 | x14 | x12 | x12 | x12 | x14 | x10 |] %22

